about/src/icon-dribbble.svg

<svg clip-rule="evenodd" fill-rule="evenodd" stroke-linejoin="round" stroke-miterlimit="2" viewBox="0 0 100 100" xmlns="http://www.w3.org/2000/svg"><path d="m0 0h100v100h-100z" fill="none"/><path d="m200 3.5c-25.671 0-46.5 20.829-46.5 46.5s20.829 46.5 46.5 46.5c25.62 0 46.5-20.829 46.5-46.5s-20.88-46.5-46.5-46.5zm5.959 54.666c-17.632 6.515-25.473 18.062-27.604 21.768 6.069 4.419 13.563 7.026 21.645 7.026 4.694 0 9.19-.869 13.342-2.501-.784-4.244-2.895-14.349-7.383-26.293zm30.208-.956c-3.089-.837-11.05-2.566-20.174-1.486 3.683 10.469 5.646 19.26 6.482 23.546 6.969-5.349 11.972-13.128 13.692-22.06zm-35.91-12.01c-16.401 4.723-32.168 5.185-37.215 5.192.079 8.626 3.151 16.574 8.183 22.811 3.322-4.97 13.685-18.622 30.848-24.207-.581-1.272-1.183-2.541-1.816-3.796zm29.432-17.063c-2.486 2.822-8.61 8.836-19.359 13.507.657 1.39 1.299 2.812 1.884 4.202.14.326.268.652.395.972 10.206-1.097 20.144.317 24.237 1.026-.438-7.327-3.018-14.121-7.157-19.707zm-46.508-10.983c-9.221 4.743-16.222 13.251-18.912 23.474 4.765-.08 17.258-.615 31.355-4.134-5.173-8.96-10.424-16.528-12.443-19.34zm40.228 4.357c-6.375-5.225-14.535-8.373-23.409-8.373-2.206 0-4.361.176-6.447.531 2.476 3.461 7.598 10.873 12.449 19.621 10.045-4.021 15.423-9.431 17.407-11.779z" transform="matrix(1.05376 0 0 1.05376 -160.7527 -2.68817)"/></svg>

<?xml version="1.0" encoding="UTF-8" standalone="no"?>
<!DOCTYPE svg PUBLIC "-//W3C//DTD SVG 1.1//EN" "http://www.w3.org/Graphics/SVG/1.1/DTD/svg11.dtd">
<svg width="100%" height="100%" viewBox="0 0 100 100" version="1.1" xmlns="http://www.w3.org/2000/svg" xmlns:xlink="http://www.w3.org/1999/xlink" xml:space="preserve" xmlns:serif="http://www.serif.com/" style="fill-rule:evenodd;clip-rule:evenodd;stroke-linejoin:round;stroke-miterlimit:2;">
    <g transform="matrix(1,0,0,1,-150,0)">
        <rect id="icon-dribbble" x="150" y="0" width="100" height="100" style="fill:none;"/>
        <g id="icon-dribbble1" serif:id="icon-dribbble">
            <g transform="matrix(1.05376,0,0,1.05376,-10.7527,-2.68817)">
                <path d="M200,3.5C174.329,3.5 153.5,24.329 153.5,50C153.5,75.671 174.329,96.5 200,96.5C225.62,96.5 246.5,75.671 246.5,50C246.5,24.329 225.62,3.5 200,3.5ZM205.959,58.166C188.327,64.681 180.486,76.228 178.355,79.934C184.424,84.353 191.918,86.96 200,86.96C204.694,86.96 209.19,86.091 213.342,84.459C212.558,80.215 210.447,70.11 205.959,58.166ZM236.167,57.21C233.078,56.373 225.117,54.644 215.993,55.724C219.676,66.193 221.639,74.984 222.475,79.27C229.444,73.921 234.447,66.142 236.167,57.21ZM200.257,45.2C183.856,49.923 168.089,50.385 163.042,50.392C163.121,59.018 166.193,66.966 171.225,73.203C174.547,68.233 184.91,54.581 202.073,48.996C201.492,47.724 200.89,46.455 200.257,45.2ZM229.689,28.137C227.203,30.959 221.079,36.973 210.33,41.644C210.987,43.034 211.629,44.456 212.214,45.846C212.354,46.172 212.482,46.498 212.609,46.818C222.815,45.721 232.753,47.135 236.846,47.844C236.408,40.517 233.828,33.723 229.689,28.137ZM183.181,17.154C173.96,21.897 166.959,30.405 164.269,40.628C169.034,40.548 181.527,40.013 195.624,36.494C190.451,27.534 185.2,19.966 183.181,17.154ZM223.409,21.511C217.034,16.286 208.874,13.138 200,13.138C197.794,13.138 195.639,13.314 193.553,13.669C196.029,17.13 201.151,24.542 206.002,33.29C216.047,29.269 221.425,23.859 223.409,21.511Z"/>
            </g>
        </g>
    </g>
</svg>
